src/pos-icons/star-four-points-outline.svg

<svg height="24" viewBox="0 0 24 24" width="24" xmlns="http://www.w3.org/2000/svg"><path d="m12 6.7 1.45 3.85 3.85 1.45-3.85 1.45-1.45 3.85-1.45-3.85-3.85-1.45 3.85-1.45zm0-5.7-3 8-8 3 8 3 3 8 3-8 8-3-8-3z"/></svg>

<?xml version="1.0" encoding="UTF-8"?><!DOCTYPE svg PUBLIC "-//W3C//DTD SVG 1.1//EN" "http://www.w3.org/Graphics/SVG/1.1/DTD/svg11.dtd"><svg xmlns="http://www.w3.org/2000/svg" xmlns:xlink="http://www.w3.org/1999/xlink" version="1.1" id="mdi-star-four-points-outline" width="24" height="24" viewBox="0 0 24 24"><path d="M12,6.7L13.45,10.55L17.3,12L13.45,13.45L12,17.3L10.55,13.45L6.7,12L10.55,10.55L12,6.7M12,1L9,9L1,12L9,15L12,23L15,15L23,12L15,9L12,1Z" /></svg>
